!!!!SEGMENT: pl-sa--217-a-vi-21--005_pichler-johann-melchior--salve-regina-adagio-et-jesum-benedictum.krn
!!!cenid: 17xx:1776
!!!COM: Pichler, Johann Melchior
!!!COM-rismID: pe41011479
!!!CDT: <1695/02/19-
!!!CNT: German
!!!OPR: Salve Regina
!!!OTL: Adagio - Et Jesum benedictum
!!!OMV: 005
!!!PDT:
!!!AGN: Sacred
!!!SMS-siglum: PL-SA
!!!SMS-shelfmark: 217/A VI 21
!!!SMS-shelfwork: 001-005 M
!!!SMS-variant:
!!!SMS-altvar:
!!!NIFC-rismSourceID: 1001030015
!!!NIFC-islandoraID:
!!!URL-pdf-islandora:
!!!URL-scan: https://bc.bdsandomierz.pl/dlibra/publication/1573/edition/1541/content @EN{Scan in the Sandomierz Diocese Digital Library} @PL{Skany w portalu Cyfrowa Biblioteka Diecezjalna w Sandomierzu}
!!!ONB-nifc: UWAGA: części Salve Regina: 1. Andante molto – Salve Regina, 2. Allegro – Vita dulcedo, 3. Adagio – Ad te clamamus, 4. Allegro – Eja ergo, 5. Adagio – Et Jesum benedictum. Uwaga: do cz. 5 należy cz. Allegro (O clemens)
!!!AIN: 1 organ 1 soprn 2 violn
!!!key:
**kern	**fba	**kern	**dynam	**kern	**dynam	**kern	**text
*part4	*part4	*part3	*part3	*part2	*part2	*part1	*part1
*staff4	*	*staff3	*	*staff2	*	*staff1	*staff1
*I"Organo.	*	*I"Violino Secondo.	*	*I"Violino Primo.	*	*I"Canto Solo.	*
*I'org	*	*I'vl 2	*	*I'vl 1	*	*I'S	*
*ICklav	*	*ICstr	*	*ICstr	*	*ICvox	*
*Iorgan	*	*Ivioln	*	*Ivioln	*	*Isoprn	*
*clefF4	*	*clefG2	*	*clefG2	*	*clefC1	*
*k[b-e-]	*	*k[b-e-]	*	*k[b-e-]	*	*k[b-e-]	*
*g:	*	*g:	*	*g:	*	*g:	*
*M4/4	*	*M4/4	*	*M4/4	*	*M4/4	*
*met(c)	*	*met(c)	*	*met(c)	*	*met(c)	*
=1	=1	=1	=1	=1	=1	=1	=1
!	!	!	!	!	!	!LO:TX:a:B:t=adagio.	!
!LO:TX:a:B:t=adagio.	!	!LO:TX:a:B:t=Adagio.	!	!LO:TX:a:B:t=adagio.	!	!	!
!	!	!	!	!	!LO:DY:t=pia.	!	!
8G\L	.	1b-	.	1dd	p	4r	.
8G\	.	.	.	.	.	.	.
8G\	.	.	.	.	.	8r	.
8G\J	.	.	.	.	.	8dd\	Et
.	.	.	.	.	.	(<16qqcc/	.
8G\L	.	.	.	.	.	8b-\)	Je-
8G\	.	.	.	.	.	8a\	-sum
8G\	.	.	.	.	.	8g/	be-
8G\J	.	.	.	.	.	8g/	-ne-
=2	=2	=2	=2	=2	=2	=2	=2
.	.	.	.	.	.	(16qqa/	.
8A\L	7	1a	.	1cc	.	8g/)	-dic-
8A\	6	.	.	.	.	4f#X/	-tum
8A\	.	.	.	.	.	.	.
8G\J	.	.	.	.	.	8r	.
8F#X\L	.	.	.	.	.	(16a\LL	fru-
.	.	.	.	.	.	16b-\JJ)	.
8F#\	5	.	.	.	.	(16cc\LL	-ctum
.	.	.	.	.	.	16dd\JJ)	.
8F#\	.	.	.	.	.	(16ee-\LL	ven-
.	.	.	.	.	.	16cc\JJ)	.
8F#\J	.	.	.	.	.	(16b-\LL	-tris
.	.	.	.	.	.	16a\JJ)	.
=3	=3	=3	=3	=3	=3	=3	=3
!LO:TX:t=P:problem=mixed beam	!	!	!	!	!	!	!
.	.	.	.	.	.	(<16qqcc/	.
8G\L	3	2d/	.	2b-/	.	16b-\LL)	tu-
.	.	.	.	.	.	16a\JJ	.
8G\	.	.	.	.	.	8g/	-i
8G\	.	.	.	.	.	8r	.
!	!	!	!	!	!	!LO:LB:g=original	!
8GG\J	.	.	.	.	.	8dd\	no-
*	*	*	*	*2\right	*	*	*
8r	.	8r	.	[2ee-X\	.	8ee-\	-bis
8G\L	6	8b-/	.	.	.	8ee-\	post
8A\	5	[4cc\	.	.	.	8ee-\	hoc
8Fn\J	7 3	.	.	.	.	8ee-\	ex-
=4	=4	=4	=4	=4	=4	=4	=4
.	.	.	.	.	.	8qqff/	.
8B-\L	4	4cc\]	.	4ee-\]	.	8.ee-\	-il-
8B-\	.	.	.	.	.	.	.
.	.	.	.	.	.	16dd\	-i-
8B-\	3	4b-/	.	4dd\	.	8dd\	-um
8BB-\J	6	.	.	.	.	8ff\	os-
!LO:TX:t=P:problem=mixed beam	!	!	!	!	!	!	!
8C\L	6	4g/	.	2cc\	.	(32gg\KLL	-ten-
.	.	.	.	.	.	16.ee-\)	.
8C\	.	.	.	.	.	(32dd\K	.
.	.	.	.	.	.	16.cc\JJ)	.
!	!	!	!	!	!	!LO:TX:a:t=t-	!
.	.	.	.	.	.	8qqb-/	.
8D\	4	4f/	.	.	.	4a\	.
8DD\J	3	.	.	.	.	.	.
=5	=5	=5	=5	=5	=5	=5	=5
8BB-/L	.	2f/	.	[1dd	.	4b-\	-de
8BB-/	.	.	.	.	.	.	.
8BB-/	.	.	.	.	.	8r	.
8BB-/J	.	.	.	.	.	8dd\	no-
8BBn/L	6	[2g/	.	.	.	8dd\	-bis
8BB/	.	.	.	.	.	8g/	post
8BB/	.	.	.	.	.	8g/	hoc
!	!	!	!	!	!	!LO:LB:g=original	!
8BB/J	9	.	.	.	.	8ff\	ex-
=6	=6	=6	=6	=6	=6	=6	=6
8C/L	x 4	2g/]	.	4dd\]	.	8.ff\	-i-
8C/	x 3	.	.	.	.	.	.
.	.	.	.	.	.	16ee-\	-li-
8C/	.	.	.	[2.cc\	.	4ee-\	-um
8BB-X/J	.	.	.	.	.	.	.
8AA/L	6 5	[2f/	.	.	.	8r	.
8AA/	.	.	.	.	.	8f/	post
8AA/	.	.	.	.	.	8f/	hoc
8AA/J	.	.	.	.	.	8ee-\	ex-
=7	=7	=7	=7	=7	=7	=7	=7
.	.	.	.	.	.	(<8qqff/	.
8BB-/L	4	4.f/]	.	4cc\]	.	8.ee-\)	-i-
8BB-/	3	.	.	.	.	.	.
.	.	.	.	.	.	16dd\	-li-
8BB-/	.	.	.	8b-\L	.	8dd\	-um
8BB-/J	6	8d/	.	8dd\J	.	8gg\	os-
.	.	.	.	.	.	8qqff/	.
!LO:LB:g=original	!	!	!	!	!	!	!
8C/L	.	4e-/	.	8cc\L	.	8ee-\L	-ten-
8C/	.	.	.	(16b-\L	.	(16dd\L	.
.	.	.	.	16a\JJ)	.	16cc\JJ)	.
!	!	!	!	!LO:TX:a:t=t-	!	!LO:TX:a:t=t-	!
.	.	.	.	8qqg/	.	8qqb-/	.
8D/	4	4d/	.	4f#X/	.	4a\	.
8DD/J	#3	.	.	.	.	.	.
=8	=8	=8	=8	=8	=8	=8	=8
*k[f#]	*	*k[f#]	*	*k[f#]	*	*k[f#]	*
*M3/8	*	*M3/8	*	*M3/8	*	*M3/8	*
!LO:TX:a:B:t=allegro.	!	!LO:TX:a:B:t=allegro	!	!LO:TX:b:t=ô clemens	!	!	!
!LO:TX:b:t=ô clemens.	!	!LO:TX:b:t=ô clemens.	!	!LO:TX:a:B:t=allegro.	!	!LO:TX:a:B:t=allegro.	!
!	!	!	!	!	!LO:DY:t=forte	!	!
!	!	!	!	!	!LO:DY:b	!	!
4GG/	.	4d/	.	4g/	f	8g/	-de
.	.	.	.	.	.	8r	.
8r	.	8r	.	8dd\	.	8r	.
!	!	!	!	!	!	!LO:LB:g=original	!
=9	=9	=9	=9	=9	=9	=9	=9
8r	.	8r	.	[4.g/	.	4.r	.
8GG/L	.	8B/L	.	.	.	.	.
8BB/J	6	8d/J	.	.	.	.	.
=10	=10	=10	=10	=10	=10	=10	=10
!LO:TX:t=P:problem=mixed beam	!	!	!	!	!	!	!
8D/L	4	4A/	.	8g/L]	.	4.r	.
8DD/J	3	.	.	(16f#/L	.	.	.
.	.	.	.	16d/	.	.	.
8r	.	8r	.	16f#/	.	.	.
.	.	.	.	16a/JJ)	.	.	.
=11	=11	=11	=11	=11	=11	=11	=11
8r	.	8r	.	[4.cc\	.	4.r	.
8D\L	7	8f#/L	.	.	.	.	.
8F#\J	4	8a/J	.	.	.	.	.
=12	=12	=12	=12	=12	=12	=12	=12
!LO:TX:t=P:problem=mixed beam	!	!	!	!	!	!	!
8G\L	3	4d/	.	8cc\L]	.	4.r	.
8GG\J	.	.	.	(16b\L	.	.	.
.	.	.	.	16g\	.	.	.
8r	.	8g/	.	16b\	.	.	.
.	.	.	.	16dd\JJ)	.	.	.
=13	=13	=13	=13	=13	=13	=13	=13
8r	.	4g/	.	[4.ee\	.	4.r	.
(16c\LL	.	.	.	.	.	.	.
16B\	.	.	.	.	.	.	.
16A\	.	8cc\	.	.	.	.	.
16c\JJ)	.	.	.	.	.	.	.
!	!	!	!	!LO:LB:g=original	!	!	!
=14	=14	=14	=14	=14	=14	=14	=14
8F#\L	7	4a/	.	32ee\LLL]	.	4.r	.
.	.	.	.	(32ff#\	.	.	.
.	.	.	.	32gg\	.	.	.
.	.	.	.	32aa\JJJ)	.	.	.
(16B\L	3	.	.	[4dd\	.	.	.
16A\	.	.	.	.	.	.	.
16G\	.	8b/	.	.	.	.	.
16B\JJ)	.	.	.	.	.	.	.
!	!	!LO:LB:g=original	!	!	!	!	!
=15	=15	=15	=15	=15	=15	=15	=15
8E\L	7	4g/	.	32dd\LLL]	.	4.r	.
.	.	.	.	32ee\	.	.	.
.	.	.	.	32ff#\	.	.	.
.	.	.	.	32gg\JJJ	.	.	.
(16A\L	3	.	.	[4cc\	.	.	.
16G\	.	.	.	.	.	.	.
16F#\	.	8a/	.	.	.	.	.
16A\JJ)	.	.	.	.	.	.	.
=16	=16	=16	=16	=16	=16	=16	=16
8D\L	7	8f#/	.	32cc\LLL]	.	4.r	.
.	.	.	.	(32dd\	.	.	.
.	.	.	.	32ee\	.	.	.
.	.	.	.	32ff#\JJJ)	.	.	.
(16G\L	3	[4g/	.	[4b\	.	.	.
16F#\	.	.	.	.	.	.	.
16E\	.	.	.	.	.	.	.
16G\JJ)	.	.	.	.	.	.	.
=17	=17	=17	=17	=17	=17	=17	=17
!LO:TX:t=P:problem=mixed beam	!	!	!	!	!	!	!
8C\L	6 5	8g/L]	.	32b\LLL]	.	4.r	.
.	.	.	.	(32cc\	.	.	.
.	.	.	.	32dd\	.	.	.
.	.	.	.	32ee\JJJ)	.	.	.
8D\	4	8g/	.	8b/L	.	.	.
!	!	!	!	!LO:TX:a:t=t-	!	!	!
8DD\J	3	8f#/J	.	8a/J	.	.	.
=18	=18	=18	=18	=18	=18	=18	=18
!LO:TX:t=P:problem=mixed beam	!	!	!	!	!	!	!
8G\L	.	4g/	.	4g/	.	8r	.
8GG\J	.	.	.	.	.	8r	.
!	!	!	!	!	!LO:DY:t=piano.	!	!
8r	.	8r	.	8dd\	p	8dd\	Ô
=19	=19	=19	=19	=19	=19	=19	=19
8r	.	8r	.	[4.g/	.	[4.g/	Cle-
!	!	!	!LO:DY:t=piano.	!	!	!	!
8G\L	.	8B/L	p	.	.	.	.
8B\J	6	8d/J	.	.	.	.	.
=20	=20	=20	=20	=20	=20	=20	=20
!LO:TX:t=P:problem=mixed beam	!	!	!	!	!	!	!
8d\L	4	4d/	.	8g/L]	.	8g/]	.
8D\J	3	.	.	16f#/L	.	8f#/	-mens
.	.	.	.	16d/	.	.	.
8r	.	8r	.	16f#/	.	8d/	ô
.	.	.	.	16a/JJ	.	.	.
!LO:LB:g=original	!	!	!	!	!	!	!
=21	=21	=21	=21	=21	=21	=21	=21
8r	.	8r	.	[4.cc\	.	[4.cc\	pi-
8D\L	7	8f#/L	.	.	.	.	.
8F#\J	.	8a/J	.	.	.	.	.
=22	=22	=22	=22	=22	=22	=22	=22
!LO:TX:t=P:problem=mixed beam	!	!	!	!	!	!	!
8G\L	.	4d/	.	8cc\L]	.	8cc\]	.
8GG\J	.	.	.	(16b\L	.	8b\	-a
.	.	.	.	16g\	.	.	.
8r	.	8g/	.	16b\	.	8g/	ô
.	.	.	.	16dd\JJ)	.	.	.
=23	=23	=23	=23	=23	=23	=23	=23
8r	.	4g/	.	[4.ee\	.	[4.ee\	dul-
(16c\LL	3	.	.	.	.	.	.
16B\	.	.	.	.	.	.	.
16A\	.	8cc\	.	.	.	.	.
16c\JJ)	.	.	.	.	.	.	.
=24	=24	=24	=24	=24	=24	=24	=24
8F#\L	7	4a/	.	32ee\LLL]	.	8ee\]	.
.	.	.	.	32ff#\	.	.	.
.	.	.	.	32gg\	.	.	.
.	.	.	.	32aa\JJJ	.	.	.
(16B\L	3	.	.	[4dd\	.	[4dd\	-cis
16A\	.	.	.	.	.	.	.
16G\	.	8b/	.	.	.	.	.
16B\JJ)	.	.	.	.	.	.	.
=25	=25	=25	=25	=25	=25	=25	=25
8E\L	7	4g/	.	32dd\LLL]	.	8dd\]	.
.	.	.	.	(32ee\	.	.	.
.	.	.	.	32ff#\	.	.	.
.	.	.	.	32gg\JJJ)	.	.	.
(16A\L	3	.	.	[4cc\	.	[4cc\	vir-
16G\	.	.	.	.	.	.	.
16F#\	.	8a/	.	.	.	.	.
16A\JJ)	.	.	.	.	.	.	.
!	!	!	!	!	!	!LO:LB:g=original	!
=26	=26	=26	=26	=26	=26	=26	=26
8D\L	7	8f#/	.	32cc\LLL]	.	8cc\]	.
.	.	.	.	(32dd\	.	.	.
.	.	.	.	32ee\	.	.	.
.	.	.	.	32ff#\JJJ)	.	.	.
(16G\L	3	[4g/	.	[4b\	.	4b\	-go
16F#\	.	.	.	.	.	.	.
16E\	.	.	.	.	.	.	.
16G\JJ)	.	.	.	.	.	.	.
=27	=27	=27	=27	=27	=27	=27	=27
!LO:TX:t=P:problem=mixed beam	!	!	!	!	!	!	!
8C\L	6 5	8g/L]	.	32b\LLL]	.	8a\	Ma-
.	.	.	.	(32cc\	.	.	.
.	.	.	.	32dd\	.	.	.
.	.	.	.	32ee\JJJ)	.	.	.
!	!	!	!	!	!	!LO:TX:a:t=t-	!
.	.	.	.	.	.	8qqg/	.
8D\	4	8g/	.	8b/L	.	4f#/	-ri-
!	!	!	!	!LO:TX:a:t=t-	!	!	!
8DD\J	3	8f#/J	.	8a/J	.	.	.
!	!	!	!	!LO:LB:g=original	!	!	!
=28	=28	=28	=28	=28	=28	=28	=28
!	!	!LO:TX:t=P:problem=mixed beam	!	!LO:TX:t=P:problem=mixed beam	!	!	!
4GG/	.	8g\L	.	8g\L	.	8g/	-a
.	.	(8ee\	.	8gg\	.	8ee\	dul-
8r	.	8dd\J)	.	8ff#\J	.	8dd\	-cis
=29	=29	=29	=29	=29	=29	=29	=29
.	.	(<16qqdd/	.	.	.	(<16qqdd/	.
8A\L	4_	8cc#X\)	.	8ee\	.	8cc#X\)	vir-
8G\	.	4dd\	.	4ff#\	.	4dd\	-go
8F#\J	6	.	.	.	.	.	.
=30	=30	=30	=30	=30	=30	=30	=30
!LO:TX:t=P:problem=mixed beam	!	!LO:TUP:a:problem=klamra łukowa	!	!LO:TUP:a:problem=klamra łukowa	!	!LO:TUP:a:problem=klamra łukowa	!
8G\L	6 5	24gg\LL	.	24bb\LL	.	24gg\LL	Ma-
.	.	24ff#\	.	24aa\	.	24ff#\	.
.	.	24ee\JJ	.	24gg\JJ	.	24ee\JJ	.
8A\	4	8dd\L	.	8ff#\L	.	8dd\L	-ri-
!	!	!LO:TX:a:t=t-	!	!	!	!LO:TX:a:t=t-	!
8AA\J	#3	8cc#X\J	.	8ee\J	.	8cc#X\J	.
=31	=31	=31	=31	=31	=31	=31	=31
!LO:TX:t=P:problem=mixed beam	!	!	!	!	!	!	!
8D\L	.	4dd\	.	4dd\	.	4dd\	-a
8DD\J	.	.	.	.	.	.	.
8r	.	8r	.	8aa\	.	8r	.
!	!	!LO:LB:g=original	!	!	!	!	!
=32	=32	=32	=32	=32	=32	=32	=32
!	!	!	!	!	!LO:DY:t=forte	!	!
8r	.	8r	.	[4.dd\	f	4.r	.
!	!	!	!LO:DY:t=for.	!	!	!	!
8D\L	.	8f#/L	f	.	.	.	.
8F#\J	6	8a/J	.	.	.	.	.
=33	=33	=33	=33	=33	=33	=33	=33
!LO:TX:t=P:problem=mixed beam	!	!	!	!	!	!	!
8A\L	4	4e/	.	8dd\L]	.	4.r	.
8AA\J	#3	.	.	(16cc#X\L	.	.	.
.	.	.	.	16a\	.	.	.
8r	.	8r	.	16cc#\	.	.	.
.	.	.	.	16ee\JJ)	.	.	.
=34	=34	=34	=34	=34	=34	=34	=34
8r	.	8r	.	[4.gg\	.	4.r	.
8A\L	7_ #	8cc#X\L	.	.	.	.	.
8c#X\J	.	8ee\J	.	.	.	.	.
=35	=35	=35	=35	=35	=35	=35	=35
!LO:TX:t=P:problem=mixed beam	!	!	!	!	!	!	!
8d\L	4	4a/	.	8gg\L]	.	4.r	.
8D\J	3	.	.	(16ff#\L	.	.	.
.	.	.	.	16dd\	.	.	.
8r	.	8d/	.	16ff#\	.	.	.
.	.	.	.	16aa\JJ)	.	.	.
!LO:LB:g=original	!	!	!	!	!	!	!
=36	=36	=36	=36	=36	=36	=36	=36
8r	.	4d/	.	[4.b\	.	4.r	.
(16G\LL	3	.	.	.	.	.	.
16F#\	.	.	.	.	.	.	.
16E\	.	8g/	.	.	.	.	.
16G\JJ)	.	.	.	.	.	.	.
=37	=37	=37	=37	=37	=37	=37	=37
8C#X\L	7	4e/	.	32b\LLL]	.	4.r	.
.	.	.	.	(32cc#X\	.	.	.
.	.	.	.	32dd\	.	.	.
.	.	.	.	32ee\JJJ)	.	.	.
(16F#\L	3	.	.	[4a\	.	.	.
16E\	.	.	.	.	.	.	.
16D\	.	8f#/	.	.	.	.	.
16F#\JJ)	.	.	.	.	.	.	.
=38	=38	=38	=38	=38	=38	=38	=38
8BB\L	7	4d/	.	32a\LLL]	.	4.r	.
.	.	.	.	(32b\	.	.	.
.	.	.	.	32cc#X\	.	.	.
.	.	.	.	32dd\JJJ)	.	.	.
(16E\L	3	.	.	[4g/	.	.	.
16D\	.	.	.	.	.	.	.
16C#X\	.	8e/	.	.	.	.	.
16D\JJ)	.	.	.	.	.	.	.
=39	=39	=39	=39	=39	=39	=39	=39
8AA/L	7 #	8c#X/	.	32g/LLL]	.	4.r	.
.	.	.	.	(32a/	.	.	.
.	.	.	.	32b/	.	.	.
.	.	.	.	32cc#X/JJJ)	.	.	.
(16D/L	3	[4d/	.	[4f#/	.	.	.
16C#X/	.	.	.	.	.	.	.
16BB/	.	.	.	.	.	.	.
16D/JJ)	.	.	.	.	.	.	.
=40	=40	=40	=40	=40	=40	=40	=40
!LO:TX:t=P:problem=mixed beam	!	!	!	!	!	!	!
8GG\L	6	8d/L]	.	32f#/LLL]	.	4.r	.
.	.	.	.	(32g/	.	.	.
.	.	.	.	32a/	.	.	.
.	.	.	.	32b/JJJ)	.	.	.
8A\	4	8d/	.	8f#/L	.	.	.
!	!	!	!	!LO:TX:a:t=t-	!	!	!
8AA\J	#3	8c#X/J	.	8e/J	.	.	.
!	!	!	!	!	!	!LO:LB:g=original	!
=41	=41	=41	=41	=41	=41	=41	=41
!LO:TX:t=P:problem=mixed beam	!	!	!	!	!	!	!
8D/L	.	4d/	.	4d/	.	8r	.
8DD/J	.	.	.	.	.	8r	.
!	!	!	!	!	!LO:DY:t=piano	!	!
8r	.	8r	.	8dd\	p	8dd\	ô
!	!	!	!	!LO:LB:g=original	!	!	!
=42	=42	=42	=42	=42	=42	=42	=42
.	.	.	.	8qqa/	.	(<8qqa/	.
8r	.	8r	.	4.g#X/	.	4.g#X/)	Cle-
!	!	!	!LO:DY:a	!	!	!	!
!	!	!	!LO:DY:t=piano	!	!	!	!
8E\L	#_	4B/	p	.	.	.	.
8D\J	.	.	.	.	.	.	.
=43	=43	=43	=43	=43	=43	=43	=43
8C/L	6	(16cn/LL	.	(16a/LL	.	4a\	-mens
.	.	16d/J)	.	16b/J)	.	.	.
8BB/J	.	8e/J	.	8cc/	.	.	.
8r	.	8r	.	8cc/J	.	8cc\	ô
=44	=44	=44	=44	=44	=44	=44	=44
.	.	.	.	(8qqgn/	.	(8qqgn/	.
8r	.	8r	.	4.f#/)	.	4.f#/)	pi-
8D/L	3_	4A/	.	.	.	.	.
8C/J	.	.	.	.	.	.	.
=45	=45	=45	=45	=45	=45	=45	=45
8BB/L	6	(16B/LL	.	(16g/LL	.	4g/	-a
.	.	16c/J)	.	16a/J)	.	.	.
8GG/J	.	8d/J	.	8b/J	.	.	.
!	!	!	!	!LO:TUP:a:problem=klamra łukowa	!	!	!
8r	.	8r	.	24b\LL	.	8d/	ô
.	.	.	.	24cc\	.	.	.
.	.	.	.	24dd\JJ	.	.	.
=46	=46	=46	=46	=46	=46	=46	=46
8r	.	8r	.	4e/	.	4e/	dul-
(16C/LL	3	(16e/LL	.	.	.	.	.
16BB/J)	.	16d/J)	.	.	.	.	.
!	!	!	!	!LO:TUP:b:problem=klamra łukowa	!	!	!
8AA/J	.	8c/J	.	24a/LL	.	8a\	-cis
.	.	.	.	24b/	.	.	.
.	.	.	.	24cc/JJ	.	.	.
=47	=47	=47	=47	=47	=47	=47	=47
.	.	.	.	(<8qqg/	.	(8qqg/	.
8r	.	8r	.	4f#/)	.	4f#/)	vir-
(16D/LL	3	(16f#/LL	.	.	.	.	.
16C/J)	.	16e/J	.	.	.	.	.
!	!	!	!	!LO:TUP:a:problem=klamra łukowa	!	!	!
8BB/J	.	8d/J)	.	24b\LL	.	8b\	-go
.	.	.	.	24cc\	.	.	.
.	.	.	.	24dd\JJ	.	.	.
=48	=48	=48	=48	=48	=48	=48	=48
.	.	.	.	(8qqa/	.	(8qqa/	.
8r	.	8r	.	4g/)	.	4g/)	dul-
(16E\LL	3	(16g/LL	.	.	.	.	.
16D\J)	.	16f#/J	.	.	.	.	.
!	!	!	!	!LO:TUP:a:problem=klamra łukowa	!	!	!
8C\J	.	8e/J)	.	24cc\LL	.	8cc\	-cis
.	.	.	.	24dd\	.	.	.
.	.	.	.	24ee\JJ	.	.	.
!	!	!	!	!	!	!LO:LB:g=original	!
!	!	!LO:LB:g=original	!	!	!	!	!
=49	=49	=49	=49	=49	=49	=49	=49
.	.	.	.	(8qqb/	.	(>8qqb/	.
8r	.	8r	.	4a/)	.	4a\)	vir-
(16F#\LL	6	(16a/LL	.	.	.	.	.
16E\J)	.	16g/J	.	.	.	.	.
!	!	!	!	!LO:TUP:a:problem=klamra łukowa	!	!	!
8D\J	.	8f#/J)	.	24dd\LL	.	8dd\	-go
.	.	.	.	24ee\	.	.	.
.	.	.	.	24ff#\JJ	.	.	.
=50	=50	=50	=50	=50	=50	=50	=50
.	.	.	.	(8qqcc/	.	(>8qqcc/	.
8r	.	8r	.	4b/)	.	4b\)	dul-
(16G\LL	3	8b\L	.	.	.	.	.
16F#\J)	.	.	.	.	.	.	.
8E\J	.	8ee\J	.	8gg\	.	8ee\	-cis
!LO:LB:g=original	!	!	!	!	!	!	!
=51	=51	=51	=51	=51	=51	=51	=51
.	.	(<8qqee/	.	(<8qqgg/	.	(<8qqee/	.
8B\L	#_	4dd#X\)	.	4ff#\)	.	4dd#X\)	vir-
8A\	.	.	.	.	.	.	.
8G\J	6	8ee\	.	8gg\	.	(16ee\LL	-go
.	.	.	.	.	.	16b\JJ)	.
=52	=52	=52	=52	=52	=52	=52	=52
!LO:TX:t=P:problem=mixed beam	!	!	!	!	!	!LO:TUP:a:problem=klamra łukowa	!
8A\L	6 5	8cc\L	.	8ff#\L	.	24cc\LL	Ma-
.	.	.	.	.	.	24b\	.
.	.	.	.	.	.	24a\JJ	.
8B\	4	8g\	.	(8ee\	.	8g/L	-ri-
!	!	!LO:TX:a:t=t-	!	!	!	!LO:TX:a:t=t-	!
8BB\J	#3	8f#\J	.	8dd#X\J)	.	8f#/J	.
=53	=53	=53	=53	=53	=53	=53	=53
!LO:TX:t=P:problem=mixed beam	!	!	!	!	!	!	!
8E\L	.	4e/	.	4ee\	.	4e/	-a
8EE\J	.	.	.	.	.	.	.
!	!	!	!	!	!LO:DY:t=Forte	!	!
8r	.	8r	.	8bb\	f	8r	.
=54	=54	=54	=54	=54	=54	=54	=54
8r	.	8r	.	[4.ee\	.	4.r	.
!	!	!	!LO:DY:t=fo	!	!	!	!
8E\L	6	8g/L	f	.	.	.	.
8G\J	.	8b/J	.	.	.	.	.
=55	=55	=55	=55	=55	=55	=55	=55
!LO:TX:t=P:problem=mixed beam	!	!	!	!	!	!	!
8B\L	4	4f#/	.	8ee\L]	.	4.r	.
8BB\J	#3	.	.	(16dd#X\L	.	.	.
.	.	.	.	16b\	.	.	.
8r	.	8r	.	16dd#\	.	.	.
.	.	.	.	16ee\JJ)	.	.	.
!	!	!	!	!LO:LB:g=original	!	!	!
=56	=56	=56	=56	=56	=56	=56	=56
8r	.	8r	.	[4.aa\	.	4.r	.
8B\L	#	8dd#X\L	.	.	.	.	.
8d#X\J	.	8ff#\J	.	.	.	.	.
=57	=57	=57	=57	=57	=57	=57	=57
8e\L	4	4b/	.	8aa\L]	.	4.r	.
8E\J	3	.	.	(16gg\L	.	.	.
.	.	.	.	16ee\	.	.	.
8r	.	8e/	.	16gg\	.	.	.
.	.	.	.	16bb\JJ)	.	.	.
=58	=58	=58	=58	=58	=58	=58	=58
8r	.	4e/	.	[4.cc\	.	4.r	.
(16A\LL	3	.	.	.	.	.	.
16G\	.	.	.	.	.	.	.
16F#\	.	8a/	.	.	.	.	.
16A\JJ)	.	.	.	.	.	.	.
=59	=59	=59	=59	=59	=59	=59	=59
8D\L	7	4f#/	.	32cc\LLL]	.	4.r	.
.	.	.	.	(32dd\	.	.	.
.	.	.	.	32ee\	.	.	.
.	.	.	.	32ff#\JJJ)	.	.	.
(16G\L	3	.	.	[4b\	.	.	.
16F#\	.	.	.	.	.	.	.
16E\	.	8g/	.	.	.	.	.
16G\JJ)	.	.	.	.	.	.	.
=60	=60	=60	=60	=60	=60	=60	=60
8C#X\L	7	4e/	.	32b\LLL]	.	4.r	.
.	.	.	.	(32cc#X\	.	.	.
.	.	.	.	32dd#X\	.	.	.
.	.	.	.	32ee\JJJ)	.	.	.
(16F#\L	3	.	.	[4a/	.	.	.
16E\	.	.	.	.	.	.	.
16D#X\	.	8f#/	.	.	.	.	.
16F#\JJ)	.	.	.	.	.	.	.
=61	=61	=61	=61	=61	=61	=61	=61
!	!	!	!	!LO:TX:t=P:problem=mixed beam	!	!	!
8BB/L	#_	8d#X/	.	16a\LL]	.	4.r	.
.	.	.	.	(16aa\	.	.	.
8D#X/	.	4b/	.	16gg\	.	.	.
.	.	.	.	16ff#\	.	.	.
8E/J	3	.	.	16gg\	.	.	.
.	.	.	.	16ee\JJ)	.	.	.
=62	=62	=62	=62	=62	=62	=62	=62
!	!	!	!	!LO:TUP:a:problem=klamra łukowa	!	!	!
16cn\LL	6	8a/L	.	24aa\LL	.	4.r	.
.	.	.	.	24gg\	.	.	.
16A\JJ	6	.	.	.	.	.	.
.	.	.	.	24ff#\JJ	.	.	.
!LO:TX:t=P:problem=mixed beam	!	!	!	!	!	!	!
8B\L	4	8g/	.	8ee\L	.	.	.
!	!	!	!	!LO:TX:a:t=t-	!	!	!
8BB\J	#3	8f#/J	.	8dd#X\J	.	.	.
=63	=63	=63	=63	=63	=63	=63	=63
!LO:TX:t=P:problem=mixed beam	!	!	!	!	!	!	!
8E\L	.	4e/	.	4ee\	.	8r	.
8EE\J	.	.	.	.	.	8r	.
!	!	!	!	!	!LO:DY:t=piano	!	!
!	!	!	!LO:DY:t=pia.	!	!	!	!
8r	.	[8cc\	p	[8ee\	p	8ee\	ô
!	!	!	!	!	!	!LO:LB:g=original	!
=64	=64	=64	=64	=64	=64	=64	=64
8F#\L	7	8cc\L]	.	8ee\L]	.	8ee\	cle-
8F#\	6	8b\	.	8ddn\	.	8dd\	-mens
8F#\J	5	8a\J	.	8cc\J	.	8cc\	ô
=65	=65	=65	=65	=65	=65	=65	=65
!LO:TX:t=P:problem=mixed beam	!	!	!	!	!	!	!
.	.	(<16qqb/	.	16qqdd/	.	(<16qqdd/	.
8G\L	4	8a/L)	.	8cc\L)	.	8cc\)	pi-
8GG\	3	8f#/	.	8a\	.	8b\	-a
8G\J	.	8b/J	.	8dd\J	.	8dd\	ô
!	!	!LO:LB:g=original	!	!	!	!	!
!LO:LB:g=original	!	!	!	!	!	!	!
=66	=66	=66	=66	=66	=66	=66	=66
8C/L	7	(8b/L	.	(8dd\L	.	(8dd\L	dul-
8C/	6	8a/	.	8cc\	.	8cc\J)	.
8C#X/J	5	8g/J)	.	8b\J)	.	8b\	-cis
=67	=67	=67	=67	=67	=67	=67	=67
.	.	(<16qqa/	.	(16qqcc/	.	(>16qqcc/	.
8D/L	4	8g/L	.	8b\L	.	8b\)	vir-
(16D/L	3	8f#/J)	.	8a\J)	.	8a\	-go
16Cn/J)	.	.	.	.	.	.	.
!	!	!	!	!LO:TUP:a:problem=klamra łukowa	!	!	!
8BB/J	6	8r	.	24b\LL	.	8d/	ô
.	.	.	.	24cc\	.	.	.
.	.	.	.	24dd\JJ	.	.	.
=68	=68	=68	=68	=68	=68	=68	=68
8r	.	8r	.	4e/	.	4e/	dul-
(16C/LL	3	(16e/LL	.	.	.	.	.
16BB/J)	.	16d/J	.	.	.	.	.
!	!	!	!	!LO:TUP:b:problem=klamra łukowa	!	!	!
8AA/J	.	8c/J)	.	24a/LL	.	8a\	-cis
.	.	.	.	24b/	.	.	.
.	.	.	.	24cc/JJ	.	.	.
!	!	!	!	!	!	!LO:LB:g=original	!
!	!	!	!	!LO:LB:g=original	!	!	!
=69	=69	=69	=69	=69	=69	=69	=69
.	.	.	.	(<8qqg/	.	(8qqg/	.
8r	.	8r	.	4f#/)	.	4f#/)	vir-
(16D/LL	3	(16f#/LL	.	.	.	.	.
16C/J)	.	16e/J	.	.	.	.	.
!	!	!	!	!LO:TUP:a:problem=klamra łukowa	!	!	!
8BB/J	.	8d/J)	.	24b\LL	.	8b\	-go
.	.	.	.	24cc\	.	.	.
.	.	.	.	24dd\JJ	.	.	.
=70	=70	=70	=70	=70	=70	=70	=70
.	.	.	.	(<8qqa/	.	(8qqa/	.
8r	.	8r	.	4g/)	.	4g/)	dul-
(16E\LL	3	(16g/LL	.	.	.	.	.
16D\J)	.	16f#/J	.	.	.	.	.
!	!	!	!	!LO:TUP:a:problem=klamra łukowa	!	!	!
8C\J	.	8e/J)	.	24cc\LL	.	8cc\	-cis
.	.	.	.	24dd\	.	.	.
.	.	.	.	24ee\JJ	.	.	.
=71	=71	=71	=71	=71	=71	=71	=71
.	.	.	.	(8qqb/	.	(>8qqb/	.
8r	.	8r	.	4a/)	.	4a\)	vir-
(16F#\LL	6	(16b/LL	.	.	.	.	.
16E\J)	.	16a/J	.	.	.	.	.
!	!	!	!	!LO:TUP:a:problem=klamra łukowa	!	!	!
8D\J	.	8g/J)	.	24dd\LL	.	8dd\	.
.	.	.	.	24ee\	.	.	.
.	.	.	.	24ff#\JJ	.	.	.
=72	=72	=72	=72	=72	=72	=72	=72
!LO:TX:t=P:problem=mixed beam	!	!	!	!	!	!	!
.	.	.	.	(8qqcc/	.	(8qqcc/	.
8G\L	.	8r	.	4b/)	.	4b\)	-go
8GG\J	.	(16g/LL	.	.	.	.	.
.	.	16a/J	.	.	.	.	.
8r	.	8b/J)	.	8dd\	.	8dd\	ô
=73	=73	=73	=73	=73	=73	=73	=73
8r	.	8r	.	[4.ee\	.	[4.ee\	dul-
!	!	!LO:TX:t=P:problem=mixed beam	!	!	!	!	!
(16c\LL	.	8g/L	.	.	.	.	.
16B\	.	.	.	.	.	.	.
16A\	.	8cc/J	.	.	.	.	.
16c\JJ)	.	.	.	.	.	.	.
=74	=74	=74	=74	=74	=74	=74	=74
8F#\L	7	4a/	.	32ee\LLL]	.	8ee\]	.
.	.	.	.	(32ff#\	.	.	.
.	.	.	.	32gg\	.	.	.
.	.	.	.	32aa\JJJ)	.	.	.
(16B\L	3	.	.	[4dd\	.	[4dd\	-cis
16A\	.	.	.	.	.	.	.
16G\	.	8b/	.	.	.	.	.
16B\JJ)	.	.	.	.	.	.	.
=75	=75	=75	=75	=75	=75	=75	=75
8E\L	7	4g/	.	32dd\LLL]	.	8dd\]	.
.	.	.	.	(32ee\	.	.	.
.	.	.	.	32ff#\	.	.	.
.	.	.	.	32gg\JJJ)	.	.	.
(16A\L	3	.	.	[4cc\	.	[4cc\	vir-
16G\	.	.	.	.	.	.	.
16F#\	.	8a/	.	.	.	.	.
16A\JJ)	.	.	.	.	.	.	.
!	!	!	!	!	!	!LO:LB:g=original	!
=76	=76	=76	=76	=76	=76	=76	=76
8D\L	7	8f#/	.	32cc\LLL]	.	8cc\]	.
.	.	.	.	(32dd\	.	.	.
.	.	.	.	32ee\	.	.	.
.	.	.	.	32ff#\JJJ)	.	.	.
(16G\L	3	[4g/	.	[4b\	.	4b\	-go
16F#\	.	.	.	.	.	.	.
16E\	.	.	.	.	.	.	.
16G\JJ)	.	.	.	.	.	.	.
=77	=77	=77	=77	=77	=77	=77	=77
!LO:TX:t=P:problem=mixed beam	!	!	!	!	!	!	!
8C\L	6 5	8g/L]	.	32b\LLL]	.	8a\	Ma-
.	.	.	.	(32cc\	.	.	.
.	.	.	.	32dd\	.	.	.
.	.	.	.	32ee\JJJ)	.	.	.
!	!	!	!	!	!	!LO:TX:a:t=t-	!
.	.	.	.	.	.	8qqg/	.
8D\	4	8g/	.	8b/L	.	4f#/	-ri-
!	!	!	!	!LO:TX:a:t=t-	!	!	!
8DD\J	3	8f#/J	.	8a/J	.	.	.
=78	=78	=78	=78	=78	=78	=78	=78
!LO:TX:t=P:problem=mixed beam	!	!	!	!	!	!	!
8G\L	.	4g/	.	4g/	.	4g/	-a
8GG\J	.	.	.	.	.	.	.
8r	.	8r	.	8dd\	.	8r	.
=79	=79	=79	=79	=79	=79	=79	=79
!	!	!	!	!	!LO:DY:t=forte	!	!
8r	.	8r	.	[4.g/	f	4.r	.
!	!	!	!LO:DY:a	!	!	!	!
!	!	!	!LO:DY:t=for.	!	!	!	!
8GG/L	.	8B/L	f	.	.	.	.
8BB/J	6	8d/J	.	.	.	.	.
!LO:LB:g=original	!	!	!	!	!	!	!
=80	=80	=80	=80	=80	=80	=80	=80
!LO:TX:t=P:problem=mixed beam	!	!	!	!	!	!	!
8D\L	4	4A/	.	8g/L]	.	4.r	.
8DD\J	3	.	.	(16f#/L	.	.	.
.	.	.	.	16d/	.	.	.
8r	.	8r	.	16f#/	.	.	.
.	.	.	.	16g/JJ)	.	.	.
!	!	!	!	!LO:LB:g=original	!	!	!
=81	=81	=81	=81	=81	=81	=81	=81
8r	.	8r	.	[4.cc\	.	4.r	.
8D\L	7_	8f#/L	.	.	.	.	.
8F#\J	.	8a/J	.	.	.	.	.
!	!	!LO:LB:g=original	!	!	!	!	!
=82	=82	=82	=82	=82	=82	=82	=82
!LO:TX:t=P:problem=mixed beam	!	!	!	!	!	!	!
8G\L	.	4d/	.	8cc\L]	.	8r	.
8GG\	.	.	.	(16b\L	.	8r	.
.	.	.	.	16a\JJ)	.	.	.
!	!	!	!	!	!LO:DY:t=piano.	!	!
!	!	!	!LO:DY:t=pia.	!	!	!	!
8B\J	6	[8dd\	p	(16b\LL	p	8dd\	ô
.	.	.	.	16dd\JJ)	.	.	.
=83	=83	=83	=83	=83	=83	=83	=83
8c\L	9	8dd\]	.	(16ee\LL	.	16ee\LL	dul-
.	.	.	.	16ff#\JJ)	.	16ff#\JJ	.
!	!	!	!	!LO:TX:a:t=t-	!	!	!
.	.	.	.	8qqgg/	.	(>8qqgg/	.
8B\	3	4cc\	.	4ff#\	.	4ff#\)	-cis
8d\J	7	.	.	.	.	.	.
!	!	!	!	!	!	!LO:LB:g=original	!
=84	=84	=84	=84	=84	=84	=84	=84
8G\L	.	(16b\LL	.	8gg\L	.	8gg\	vir-
.	.	16cc\JJ)	.	.	.	.	.
8B\	6	[4dd\	.	8dd\	.	4dd\	-go
8G\J	.	.	.	8bb\J	.	.	.
=85	=85	=85	=85	=85	=85	=85	=85
8c\L	9	8dd\]	.	(16ee\LL	.	(16ee\LL	dul-
.	.	.	.	16ff#\JJ)	.	16ff#\JJ)	.
!	!	!	!	!LO:TX:a:t=t-	!	!	!
.	.	.	.	8qqgg/	.	(>8qqgg/	.
8A\	3	4cc\	.	4ff#\	.	4ff#\)	-cis
8d\J	7	.	.	.	.	.	.
=86	=86	=86	=86	=86	=86	=86	=86
8G\L	.	(16b\LL	.	8gg\L	.	8gg\	vir-
.	.	16cc\JJ)	.	.	.	.	.
8B\	6	4dd\	.	8dd\	.	4dd\	-go
8G\J	.	.	.	8bb\J	.	.	.
=87	=87	=87	=87	=87	=87	=87	=87
!LO:TX:t=P:problem=mixed beam	!	!LO:TUP:a:problem=klamra łukowa	!	!LO:TUP:a:problem=klamra łukowa	!	!LO:TUP:a:problem=klamra łukowa	!
8c\L	6 5	24cc\LL	.	24ee\LL	.	24ee\LL	Ma-
.	.	24b\	.	24dd\	.	24dd\	.
.	.	24a\JJ	.	24cc\JJ	.	24cc\JJ	.
8d\	4	8g/L	.	8b\L	.	8b\L	-ri-
!	!	!	!	!LO:TX:a:t=t-	!	!LO:TX:a:t=t-	!
8D\J	3	8f#/J	.	8a\J	.	8a\J	.
=88	=88	=88	=88	=88	=88	=88	=88
!LO:TX:t=P:problem=mixed beam	!	!	!	!	!	!	!
8G\L	.	4g/	.	4g/	.	4g/	-a
8GG\J	.	.	.	.	.	.	.
!	!	!	!	!	!LO:DY:t=Forte.	!	!
8r	.	8r	.	8dd\	f	8r	.
=89	=89	=89	=89	=89	=89	=89	=89
8r	.	8r	.	[4.g/	.	4.r	.
!	!	!	!LO:DY:t=for.	!	!	!	!
8GG/L	.	8B/L	f	.	.	.	.
8BB/J	6	8d/J	.	.	.	.	.
=90	=90	=90	=90	=90	=90	=90	=90
!LO:TX:t=P:problem=mixed beam	!	!	!	!	!	!	!
8D\L	4	4A/	.	8g/L]	.	4.r	.
8DD\J	3	.	.	(16f#/L	.	.	.
.	.	.	.	16d/	.	.	.
8r	.	8r	.	16f#/	.	.	.
.	.	.	.	16a/JJ)	.	.	.
=91	=91	=91	=91	=91	=91	=91	=91
8r	.	8r	.	[4.cc\	.	4.r	.
8D\L	7_	8f#/L	.	.	.	.	.
8F#\J	.	8a/J	.	.	.	.	.
=92	=92	=92	=92	=92	=92	=92	=92
!LO:TX:t=P:problem=mixed beam	!	!	!	!	!	!	!
8G\L	4	4d/	.	8cc\L]	.	4.r	.
8GG\J	3	.	.	(16b\L	.	.	.
.	.	.	.	16a\	.	.	.
8r	.	8g/	.	16b\	.	.	.
.	.	.	.	16dd\JJ)	.	.	.
=93	=93	=93	=93	=93	=93	=93	=93
8r	.	4g/	.	[4.ee\	.	4.r	.
(16c\LL	.	.	.	.	.	.	.
16B\	.	.	.	.	.	.	.
16A\	.	8cc\	.	.	.	.	.
16c\JJ)	.	.	.	.	.	.	.
=94	=94	=94	=94	=94	=94	=94	=94
8F#\L	7	4a/	.	32ee\LLL]	.	4.r	.
.	.	.	.	(32ff#\	.	.	.
.	.	.	.	32gg\	.	.	.
.	.	.	.	32aa\JJJ)	.	.	.
16B\L	3	.	.	[4dd\	.	.	.
16A\	.	.	.	.	.	.	.
16G\	.	8b/	.	.	.	.	.
16B\JJ	.	.	.	.	.	.	.
!	!	!	!	!LO:LB:g=original	!	!	!
!LO:LB:g=original	!	!	!	!	!	!	!
=95	=95	=95	=95	=95	=95	=95	=95
8E\L	7	4g/	.	32dd\LLL]	.	4.r	.
.	.	.	.	(32ee\	.	.	.
.	.	.	.	32ff#\	.	.	.
.	.	.	.	32gg\JJJ)	.	.	.
(16A\L	3	.	.	[4cc\	.	.	.
16G\	.	.	.	.	.	.	.
16F#\	.	8a/	.	.	.	.	.
16A\JJ)	.	.	.	.	.	.	.
=96	=96	=96	=96	=96	=96	=96	=96
8D\L	7	8f#/	.	32cc\LLL]	.	4.r	.
.	.	.	.	(32dd\	.	.	.
.	.	.	.	32ee\	.	.	.
.	.	.	.	32ff#\JJJ)	.	.	.
(16G\L	3	4g/	.	[4b\	.	.	.
16F#\	.	.	.	.	.	.	.
16E\	.	.	.	.	.	.	.
16G\JJ)	.	.	.	.	.	.	.
!	!	!LO:LB:g=original	!	!	!	!	!
=97	=97	=97	=97	=97	=97	=97	=97
!LO:TX:t=P:problem=mixed beam	!	!	!	!	!	!	!
8C\L	6 5	8g/L	.	32b\LLL]	.	4.r	.
.	.	.	.	(32cc\	.	.	.
.	.	.	.	32dd\	.	.	.
.	.	.	.	32ee\JJJ)	.	.	.
8D\	4	8g/	.	8b/L	.	.	.
!	!	!	!	!LO:TX:a:t=t-	!	!	!
8DD\J	3	8f#/J	.	8a/J	.	.	.
=98	=98	=98	=98	=98	=98	=98	=98
4GG/	.	8g/L	.	8g/L	.	4.r	.
.	.	8G/J	.	8G/J	.	.	.
8r;	.	8r;	.	8r;	.	.	.
==	==	==	==	==	==	==	==
*-	*-	*-	*-	*-	*-	*-	*-
!!!system-decoration: [(s1)][(s2,s3)]s4
!!!RDF**kern: > = above
!!!RDF**kern: < = below
!!!ENC: Tomasz Grochalski
!!!END: 2021-02-07
!!!ENC: Natalia Wrzos
!!!END: 2022-01-11
